polaris-icons/icons/Tips.svg

<svg width="20" height="20" viewBox="0 0 20 20" fill="none" xmlns="http://www.w3.org/2000/svg">
<path d="M9.375 7.25C8.33947 7.25 7.5 8.08947 7.5 9.125C7.5 10.1605 8.33947 11 9.375 11H10.625C10.8321 11 11 11.1679 11 11.375C11 11.5821 10.8321 11.75 10.625 11.75H8.25C7.83579 11.75 7.5 12.0858 7.5 12.5C7.5 12.9142 7.83579 13.25 8.25 13.25H9C9 13.6642 9.33579 14 9.75 14C10.1642 14 10.5 13.6642 10.5 13.25H10.625C11.6605 13.25 12.5 12.4105 12.5 11.375C12.5 10.3395 11.6605 9.5 10.625 9.5H9.375C9.16789 9.5 9 9.33211 9 9.125C9 8.91789 9.16789 8.75 9.375 8.75H11.75C12.1642 8.75 12.5 8.41421 12.5 8C12.5 7.58579 12.1642 7.25 11.75 7.25H11C11 6.83579 10.6642 6.5 10.25 6.5C9.83579 6.5 9.5 6.83579 9.5 7.25H9.375Z" fill="#4A4A4A"/>
<path fill-rule="evenodd" clip-rule="evenodd" d="M5.75 5.76963C5.75 5.58313 5.77249 5.40189 5.81492 5.22847C5.62105 5.04608 5.5 4.78718 5.5 4.5C5.5 3.94772 5.94772 3.5 6.5 3.5H13.5C14.0523 3.5 14.5 3.94772 14.5 4.5C14.5 4.78718 14.3789 5.04608 14.1851 5.22847C14.2275 5.40189 14.25 5.58313 14.25 5.76963C14.25 6.00343 14.3563 6.22455 14.5388 6.37061L14.5935 6.41435C15.1665 6.87271 15.5 7.56666 15.5 8.30039V13.75C15.5 15.2688 14.2688 16.5 12.75 16.5H7.25C5.73122 16.5 4.5 15.2688 4.5 13.75V8.30039C4.5 7.56666 4.83353 6.87271 5.40648 6.41435L5.46115 6.37061C5.64372 6.22455 5.75 6.00343 5.75 5.76963ZM7.25 5.76963C7.25 5.67477 7.26716 5.58391 7.29855 5.5H12.7014C12.7328 5.58391 12.75 5.67477 12.75 5.76963C12.75 6.4591 13.0634 7.1112 13.6018 7.54191L13.6565 7.58565C13.8736 7.75935 14 8.02233 14 8.30039V13.75C14 14.4404 13.4404 15 12.75 15H7.25C6.55964 15 6 14.4404 6 13.75V8.30039C6 8.02233 6.1264 7.75935 6.34352 7.58565L6.3982 7.54191C6.93659 7.1112 7.25 6.45911 7.25 5.76963Z" fill="#4A4A4A"/>
</svg>

<svg viewBox="0 0 20 20" xmlns="http://www.w3.org/2000/svg"><path d="M9.375 7.25a1.875 1.875 0 0 0 0 3.75h1.25a.375.375 0 0 1 0 .75h-2.375a.75.75 0 0 0 0 1.5h.75a.75.75 0 0 0 1.5 0h.125a1.875 1.875 0 0 0 0-3.75h-1.25a.375.375 0 1 1 0-.75h2.375a.75.75 0 0 0 0-1.5h-.75a.75.75 0 0 0-1.5 0h-.125Z" fill="#5C5F62"/><path fill-rule="evenodd" d="M5.75 5.77c0-.187.022-.368.065-.542a1 1 0 0 1 .685-1.728h7a1 1 0 0 1 .685 1.728c.042.174.065.355.065.542a.77.77 0 0 0 .289.6l.055.044a2.42 2.42 0 0 1 .906 1.886v5.45a2.75 2.75 0 0 1-2.75 2.75h-5.5a2.75 2.75 0 0 1-2.75-2.75v-5.45c0-.733.334-1.427.906-1.886l.055-.043a.77.77 0 0 0 .289-.601Zm1.5 0c0-.095.017-.186.049-.27h5.402a.768.768 0 0 1 .049.27c0 .69.313 1.341.852 1.772l.054.044a.915.915 0 0 1 .344.714v5.45c0 .69-.56 1.25-1.25 1.25h-5.5c-.69 0-1.25-.56-1.25-1.25v-5.45c0-.278.126-.54.344-.714l.054-.044a2.27 2.27 0 0 0 .852-1.772Z" fill="#5C5F62"/></svg>
